fa/svgs/regular/comments.svg

<svg xmlns="http://www.w3.org/2000/svg" viewBox="0 0 640 512"><!--! Font Awesome Free 6.1.1 by @fontawesome - https://fontawesome.com License - https://fontawesome.com/license/free (Icons: CC BY 4.0, Fonts: SIL OFL 1.1, Code: MIT License) Copyright 2022 Fonticons, Inc.--><path d="M208 0c114.9 0 208 78.8 208 176s-93.1 176-208 176c-18.7 0-36.8-2.3-54.1-6.2-30.6 19-74.77 38.2-128.95 38.2-9.98 0-19.02-5.9-22.932-15.1-3.914-9.2-2.025-19.8 4.721-27 .521-.4 22.641-24.5 38.991-56C17.18 255.8 0 217.6 0 176 0 78.8 93.13 0 208 0zm-43.4 298.1c14.6 4.2 29.2 5.9 43.4 5.9 88.2 0 160-57.4 160-128S296.2 48 208 48 48 105.4 48 176c0 35.2 17.71 61.2 32.57 76.9l23.53 24.9-15.79 30.3c-3.57 6-7.58 13.8-11.76 20.4 17.71-5.1 35.15-13 52.15-24.4l16.7-9.5 19.2 3.5zm277-169.9C552 132.4 640 209.5 640 304c0 41.6-17.2 79.8-45.7 109.9 16.3 31.5 38.4 55.6 39 56 6.7 7.2 8.6 17.8 3.8 27-3 9.2-12.1 15.1-22.1 15.1-54.1 0-98.3-19.2-128.9-38.2-17.3 3.9-35.4 6.2-54.1 6.2-82 0-152.9-40.2-186.8-98.5 17.3-2.3 33.9-6.2 49.7-11.6 28 37.2 79 62.1 137.1 62.1 14.2 0 28.8-1.7 43.4-5.9l19.2-3.5 16.7 9.5c17 11.4 34.4 19.3 52.2 24.4-4.2-6.6-8.2-14.4-11.8-20.4l-15.8-30.3 23.5-24.9c14.9-15.6 32.6-41.7 32.6-76.9 0-66.3-63.3-120.9-144.9-127.4l.9-.6c0-16.5-2.2-32.5-6.4-47.8z"/></svg>

<svg xmlns="http://www.w3.org/2000/svg" viewBox="0 0 640 512"><!--! Font Awesome Free 6.2.1 by @fontawesome - https://fontawesome.com License - https://fontawesome.com/license/free (Icons: CC BY 4.0, Fonts: SIL OFL 1.1, Code: MIT License) Copyright 2022 Fonticons, Inc. --><path d="M208 0C322.9 0 416 78.8 416 176C416 273.2 322.9 352 208 352C189.3 352 171.2 349.7 153.9 345.8C123.3 364.8 79.13 384 24.95 384C14.97 384 5.93 378.1 2.018 368.9C-1.896 359.7-.0074 349.1 6.739 341.9C7.26 341.5 29.38 317.4 45.73 285.9C17.18 255.8 0 217.6 0 176C0 78.8 93.13 0 208 0zM164.6 298.1C179.2 302.3 193.8 304 208 304C296.2 304 368 246.6 368 176C368 105.4 296.2 48 208 48C119.8 48 48 105.4 48 176C48 211.2 65.71 237.2 80.57 252.9L104.1 277.8L88.31 308.1C84.74 314.1 80.73 321.9 76.55 328.5C94.26 323.4 111.7 315.5 128.7 304.1L145.4 294.6L164.6 298.1zM441.6 128.2C552 132.4 640 209.5 640 304C640 345.6 622.8 383.8 594.3 413.9C610.6 445.4 632.7 469.5 633.3 469.9C640 477.1 641.9 487.7 637.1 496.9C634.1 506.1 625 512 615 512C560.9 512 516.7 492.8 486.1 473.8C468.8 477.7 450.7 480 432 480C350 480 279.1 439.8 245.2 381.5C262.5 379.2 279.1 375.3 294.9 369.9C322.9 407.1 373.9 432 432 432C446.2 432 460.8 430.3 475.4 426.1L494.6 422.6L511.3 432.1C528.3 443.5 545.7 451.4 563.5 456.5C559.3 449.9 555.3 442.1 551.7 436.1L535.9 405.8L559.4 380.9C574.3 365.3 592 339.2 592 304C592 237.7 528.7 183.1 447.1 176.6L448 176C448 159.5 445.8 143.5 441.6 128.2H441.6z"/></svg>
